X:18
T:Green Sleeves and Yellow Lace
M:6/8
L:1/8
B:The Round Band Book of Playford
K:Gm
G | "Gm"B2B B>cd | "F"cAF F>GA | "Eb"B2G G>AB | "D"A>^F=E D2A |\
"Gm"B2B B>cd | "F"cAF F>GA | "Gm"B>AG "D"A^F2 | "Gm"G3 G2 :|
|:\
=e | "Bb"f2f f>_ed | "F"cAF F2f | "Gm"g2a bag | "Dm"fdd d2=e |\
"Bb"f2f f>_ed | "F"cAF F2A | "Gm"B>AG "D"A^F2 | "Gm"G3 G2 :|
